_src/assets/icons/original/twitter.svg

<svg xmlns="http://www.w3.org/2000/svg" preserveAspectRatio="xMidYMid" width="64" height="53" viewBox="0 0 64 53"><path d="M43.531.009c5.086-.09 7.793 1.774 10.379 4.146 2.195-.19 5.047-1.424 6.727-2.282l1.633-.9c-.959 2.61-2.26 4.652-4.26 6.203-.444.344-.885.809-1.441 1.028v.032c2.849-.029 5.199-1.323 7.431-2.024v.032c-1.172 1.875-2.759 3.777-4.452 5.142l-2.05 1.639c.037 3.036-.045 5.932-.609 8.484-3.279 14.831-11.968 24.899-25.722 29.212-4.939 1.549-12.92 2.185-18.578.771-2.807-.701-5.341-1.492-7.72-2.538-1.321-.582-2.545-1.211-3.716-1.929l-1.153-.707c1.276.039 2.769.393 4.196.161 1.291-.21 2.557-.155 3.748-.418 2.97-.655 5.607-1.523 7.88-2.86 1.101-.648 2.773-1.41 3.555-2.346-1.475.027-2.812-.318-3.907-.707-4.248-1.509-6.72-4.283-8.329-8.452 1.287.141 4.995.479 5.862-.257-1.62-.09-3.179-1.034-4.292-1.735-3.417-2.152-6.203-5.76-6.182-11.312l1.345.642c.858.364 1.731.559 2.755.771.432.09 1.297.346 1.793.161h-.064c-.661-.774-1.738-1.29-2.402-2.121-2.192-2.742-4.247-6.961-2.947-11.987.33-1.275.852-2.4 1.409-3.439l.064.033c.256.537.825.932 1.186 1.381 1.119 1.396 2.5 2.653 3.908 3.76 4.794 3.774 9.112 6.093 16.048 7.81 1.759.435 3.792.768 5.894.771-.591-1.73-.401-4.528.064-6.203 1.168-4.209 3.707-7.243 7.431-8.869.891-.389 1.878-.672 2.915-.9l1.601-.193z" class="cls-2" fill-rule="evenodd"/></svg>

<svg xmlns="http://www.w3.org/2000/svg" xmlns:xlink="http://www.w3.org/1999/xlink" preserveAspectRatio="xMidYMid" width="64" height="53" viewBox="0 0 64 53">

  <path d="M43.531,0.009 C48.617,-0.081 51.324,1.783 53.910,4.155 C56.105,3.965 58.957,2.731 60.637,1.873 C61.181,1.573 61.726,1.273 62.270,0.973 C61.311,3.583 60.010,5.625 58.010,7.176 C57.566,7.520 57.125,7.985 56.569,8.204 C56.569,8.215 56.569,8.226 56.569,8.236 C59.418,8.207 61.768,6.913 64.000,6.212 C64.000,6.222 64.000,6.233 64.000,6.244 C62.828,8.119 61.241,10.021 59.548,11.386 C58.864,11.932 58.181,12.478 57.498,13.025 C57.535,16.061 57.453,18.957 56.889,21.509 C53.610,36.340 44.921,46.408 31.167,50.721 C26.228,52.270 18.247,52.906 12.589,51.492 C9.782,50.791 7.248,50.000 4.869,48.954 C3.548,48.372 2.324,47.743 1.153,47.025 C0.769,46.790 0.384,46.554 -0.000,46.318 C1.276,46.357 2.769,46.711 4.196,46.479 C5.487,46.269 6.753,46.324 7.944,46.061 C10.914,45.406 13.551,44.538 15.824,43.201 C16.925,42.553 18.597,41.791 19.379,40.855 C17.904,40.882 16.567,40.537 15.472,40.148 C11.224,38.639 8.752,35.865 7.143,31.696 C8.430,31.837 12.138,32.175 13.005,31.439 C11.385,31.349 9.826,30.405 8.713,29.704 C5.296,27.552 2.510,23.944 2.531,18.392 C2.979,18.606 3.427,18.820 3.876,19.034 C4.734,19.398 5.607,19.593 6.631,19.805 C7.063,19.895 7.928,20.151 8.424,19.966 C8.403,19.966 8.382,19.966 8.360,19.966 C7.699,19.192 6.622,18.676 5.958,17.845 C3.766,15.103 1.711,10.884 3.011,5.858 C3.341,4.583 3.863,3.458 4.420,2.419 C4.442,2.430 4.463,2.441 4.484,2.452 C4.740,2.989 5.309,3.384 5.670,3.833 C6.789,5.229 8.170,6.486 9.578,7.593 C14.372,11.367 18.690,13.686 25.626,15.403 C27.385,15.838 29.418,16.171 31.520,16.174 C30.929,14.444 31.119,11.646 31.584,9.971 C32.752,5.762 35.291,2.728 39.015,1.102 C39.906,0.713 40.893,0.430 41.930,0.202 C42.464,0.138 42.998,0.073 43.531,0.009 Z" id="path-1" class="cls-2" fill-rule="evenodd"/>
</svg>
